packages/flat-components/src/components/ChatPanel/ChatTypeBox/icons/hand.svg

<?xml version="1.0" encoding="UTF-8"?>
<svg width="22px" height="22px" viewBox="0 0 22 22" version="1.1" xmlns="http://www.w3.org/2000/svg" xmlns:xlink="http://www.w3.org/1999/xlink">
    <title>矩形备份 16</title>
    <g id="2.1" stroke="none" stroke-width="1" fill="none" fill-rule="evenodd" stroke-linecap="round" stroke-linejoin="round">
        <g id="组件规范" transform="translate(-732.000000, -1792.000000)" stroke="#444E60">
            <g id="编组-4备份-3" transform="translate(720.000000, 1208.000000)">
                <g id="编组-4" transform="translate(12.000000, 584.000000)">
                    <path d="M11.3325394,3 C12.0598758,3 12.6494985,3.58962266 12.6494985,4.31695907 L12.6494985,5.20584796 C12.6494985,4.47851155 13.2391212,3.88888889 13.9664576,3.88888889 C14.693794,3.88888889 15.2834166,4.47851155 15.2834166,5.20584796 L15.2834166,7.87251462 C15.2834166,7.14517821 15.8730393,6.55555556 16.6003757,6.55555556 C17.3277121,6.55555556 17.9173348,7.14517821 17.9173348,7.87251462 L17.9173348,10.9456771 C17.9173348,12.5466704 17.2864468,14.0831764 16.1613894,15.2222222 C16.0823938,15.3021999 16.0013779,15.3797195 15.9184604,15.4547311 L15.9173348,19 L7.91733478,19 L7.91685165,15.9190769 C7.36855133,15.5334742 6.88264239,15.0529783 6.4852863,14.4911299 L4.19017598,11.2459201 C3.8599138,10.7789404 3.97074529,10.1326481 4.43772504,9.80238593 C4.51962863,9.74446124 4.60951379,9.69874395 4.70456385,9.66666667 C5.49195253,9.40094047 6.36113969,9.66612025 6.86609693,10.3261275 L7.38166223,11 L7.38166223,5.20584796 C7.38166223,4.47851155 7.97128488,3.88888889 8.69862129,3.88888889 C9.4259577,3.88888889 10.0155804,4.47851155 10.0155804,5.20584796 L10.0155804,4.31695907 C10.0155804,3.58962266 10.605203,3 11.3325394,3 Z M10.0155804,4.77777778 L10.0155804,10.1111111 M12.6494985,4.77777778 L12.6494985,10.1111111 M15.2834166,7.44444444 L15.2834166,10.1111111" id="形状结合备份-2"></path>
                </g>
            </g>
        </g>
    </g>
</svg>

<svg xmlns="http://www.w3.org/2000/svg" viewBox="0 0 22 22">
  <path fill="none" fill-rule="evenodd" stroke="#444E60" stroke-linecap="round" stroke-linejoin="round" d="M11.333 3c.727 0 1.316.59 1.316 1.317v.889a1.317 1.317 0 012.634 0v2.667a1.317 1.317 0 012.634 0v3.073a6.086 6.086 0 01-1.999 4.509V19h-8l-.001-3.08a5.933 5.933 0 01-1.432-1.429L4.19 11.246a1.036 1.036 0 01.515-1.58 1.94 1.94 0 012.161.66l.516.674V5.206a1.317 1.317 0 112.634 0v-.889c0-.727.59-1.317 1.317-1.317zm-1.317 1.778v5.333m2.633-5.333v5.333m2.634-2.667v2.667"/>
</svg>
